icons/youtube.svg

<svg width="32" height="32" viewBox="0 0 32 32" fill="none" xmlns="http://www.w3.org/2000/svg">
<path d="M3.36667 28.6333C0.913335 26.18 0 22.18 0 16C0 9.82 0.913335 5.82 3.36667 3.36667C5.82 0.913333 9.82 0 16 0C22.18 0 26.18 0.913333 28.6333 3.36667C31.0867 5.82 32 9.82 32 16C32 22.18 31.0867 26.18 28.6333 28.6333C26.18 31.0867 22.18 32 16 32C9.82 32 5.82 31.0867 3.36667 28.6333Z" fill="white"/>
<path d="M27.2585 10.3071C27.1257 9.80697 26.8639 9.35054 26.4992 8.98348C26.1346 8.61641 25.6799 8.3516 25.1807 8.21555C23.3486 7.72107 16 7.72107 16 7.72107C16 7.72107 8.65135 7.72107 6.81835 8.21555C6.31938 8.35184 5.86493 8.61675 5.50047 8.98379C5.13601 9.35083 4.87431 9.80713 4.74154 10.3071C4.25 12.1518 4.25 15.9999 4.25 15.9999C4.25 15.9999 4.25 19.8481 4.74154 21.6928C4.8743 22.1929 5.13612 22.6493 5.50078 23.0164C5.86544 23.3835 6.32013 23.6483 6.81933 23.7843C8.65135 24.2788 16 24.2788 16 24.2788C16 24.2788 23.3486 24.2788 25.1816 23.7843C25.6809 23.6484 26.1356 23.3836 26.5003 23.0165C26.865 22.6494 27.1268 22.193 27.2594 21.6928C27.75 19.8481 27.75 15.9999 27.75 15.9999C27.75 15.9999 27.75 12.1518 27.2585 10.3071ZM13.5961 19.4936V12.5063L19.7385 15.9999L13.5961 19.4936Z" fill="#FF0100"/>
</svg>

<svg xmlns="http://www.w3.org/2000/svg" width="32" height="32" fill="none" viewBox="0 0 32 32">
  <path fill="#fff" d="M3.367 28.633C.913 26.18 0 22.18 0 16 0 9.82.913 5.82 3.367 3.367 5.82.913 9.82 0 16 0c6.18 0 10.18.913 12.633 3.367C31.087 5.82 32 9.82 32 16c0 6.18-.913 10.18-3.367 12.633C26.18 31.087 22.18 32 16 32c-6.18 0-10.18-.913-12.633-3.367Z"/>
  <path fill="#FF0100" d="M27.259 10.307a2.953 2.953 0 0 0-2.078-2.091C23.349 7.72 16 7.72 16 7.72s-7.349 0-9.182.495a2.954 2.954 0 0 0-2.076 2.091C4.25 12.152 4.25 16 4.25 16s0 3.848.492 5.693a2.953 2.953 0 0 0 2.077 2.091c1.832.495 9.181.495 9.181.495s7.349 0 9.182-.494a2.953 2.953 0 0 0 2.077-2.092c.491-1.845.491-5.693.491-5.693s0-3.848-.491-5.693Zm-13.663 9.187v-6.988L19.738 16l-6.142 3.494Z"/>
</svg>
